packages/kaspersky-hexa-ui-icons/src/iconsSVGs/48/UnknownDrive.svg

<svg width="48" height="48" viewBox="0 0 48 48" fill="none" xmlns="http://www.w3.org/2000/svg">
<path fill-rule="evenodd" clip-rule="evenodd" d="M5 0V48H43V0H5ZM15 6V2H16V6H15ZM18 2H19V6H18V2ZM21 2H22V6H21V2ZM24 2H25V6H24V2ZM27 2H28V6H27V2ZM30 2H31V6H30V2ZM13 2V6H12V2H13ZM41 46H7V2H10V8H33V2H41V46ZM38 43V10H10V43H38ZM12 12H36V41H12V12ZM23 31H25V33H23V31ZM28 23.43C27.9815 24.8706 27.3261 26.229 26.21 27.14C25.474 27.675 25.0273 28.5206 25 29.43H23C23.0158 27.9888 23.6717 26.6293 24.79 25.72C25.519 25.1791 25.9639 24.3371 26 23.43C26 22.3254 25.1046 21.43 24 21.43C22.8954 21.43 22 22.3254 22 23.43H20C20 21.2209 21.7909 19.43 24 19.43C26.2091 19.43 28 21.2209 28 23.43ZM8 8H10V10H8V8ZM8 43H10V45H8V43ZM38 45V43H40V45H38ZM40 10H38V8H40V10Z"  fill="currentColor"/>
</svg>

<svg xmlns="http://www.w3.org/2000/svg" width="48" height="48" fill="none" viewBox="0 0 48 48"><path fill="currentColor" fill-rule="evenodd" d="M5 0v48h38V0zm10 6V2h1v4zm3-4h1v4h-1zm3 0h1v4h-1zm3 0h1v4h-1zm3 0h1v4h-1zm3 0h1v4h-1zM13 2v4h-1V2zm28 44H7V2h3v6h23V2h8zm-3-3V10H10v33zM12 12h24v29H12zm11 19h2v2h-2zm5-7.57a4.87 4.87 0 0 1-1.79 3.71A2.94 2.94 0 0 0 25 29.43h-2a4.85 4.85 0 0 1 1.79-3.71A3 3 0 0 0 26 23.43c0-1.1046-.8954-2-2-2s-2 .8954-2 2h-2c0-2.2091 1.7909-4 4-4s4 1.7909 4 4M8 8h2v2H8zm0 35h2v2H8zm30 2v-2h2v2zm2-35h-2V8h2z" clip-rule="evenodd"/></svg>
